public/headerImg/mail.svg

<svg width="20" height="20" viewBox="0 0 20 20" fill="none" xmlns="http://www.w3.org/2000/svg">
<g clip-path="url(#clip0_70_5)">
<path fill-rule="evenodd" clip-rule="evenodd" d="M17.9167 17.0834H2.08333C1.5308 17.0834 1.0009 16.8639 0.610194 16.4732C0.219493 16.0825 0 15.5526 0 15L0 4.16671C0.000514522 3.84081 0.12888 3.52813 0.3575 3.29587V3.28587C0.405746 3.22999 0.46824 3.18823 0.538333 3.16504C0.742193 3.00913 0.990108 2.92163 1.24667 2.91504H18.7467C19.0032 2.92163 19.2511 3.00913 19.455 3.16504C19.5251 3.18823 19.5876 3.22999 19.6358 3.28587V3.29587C19.8664 3.5274 19.9971 3.83999 20 4.16671V15C20 15.2736 19.9461 15.5445 19.8414 15.7973C19.7367 16.0501 19.5833 16.2797 19.3898 16.4732C19.1964 16.6666 18.9667 16.8201 18.7139 16.9248C18.4612 17.0295 18.1903 17.0834 17.9167 17.0834ZM1.58333 3.75004L8.67833 9.55671C9.05916 9.84154 9.52194 9.99546 9.9975 9.99546C10.4731 9.99546 10.9358 9.84154 11.3167 9.55671L18.4167 3.75004H1.58333ZM19.1667 4.21087L12.4117 9.73921L15.7108 13.0384C15.7506 13.0768 15.7824 13.1228 15.8042 13.1736C15.826 13.2245 15.8375 13.2791 15.838 13.3345C15.8385 13.3898 15.828 13.4446 15.807 13.4959C15.7861 13.5471 15.7551 13.5936 15.716 13.6327C15.6769 13.6718 15.6304 13.7028 15.5791 13.7237C15.5279 13.7447 15.4731 13.7552 15.4177 13.7547C15.3624 13.7542 15.3077 13.7428 15.2569 13.7209C15.2061 13.6991 15.1601 13.6673 15.1217 13.6275L11.7883 10.2942C11.7815 10.2805 11.7757 10.2663 11.7708 10.2517C11.256 10.6255 10.6362 10.8267 10 10.8267C9.36383 10.8267 8.74397 10.6255 8.22917 10.2517C8.22407 10.2663 8.21794 10.2805 8.21083 10.2942L4.8775 13.6275C4.79936 13.7057 4.6934 13.7495 4.58292 13.7495C4.47243 13.7495 4.36647 13.7057 4.28833 13.6275C4.21022 13.5494 4.16634 13.4434 4.16634 13.333C4.16634 13.2225 4.21022 13.1165 4.28833 13.0384L7.58833 9.73921L0.833333 4.21087V15C0.833333 15.3316 0.965029 15.6495 1.19945 15.8839C1.43387 16.1183 1.75181 16.25 2.08333 16.25H17.9167C18.2482 16.25 18.5661 16.1183 18.8005 15.8839C19.035 15.6495 19.1667 15.3316 19.1667 15V4.21087Z" fill="#F47E44"/>
</g>
<defs>
<clipPath id="clip0_70_5">
<rect width="20" height="20" fill="white"/>
</clipPath>
</defs>
</svg>

<svg width="20" height="20" fill="none" xmlns="http://www.w3.org/2000/svg"><g clip-path="url(#a)"><path fill-rule="evenodd" clip-rule="evenodd" d="M17.917 17.083H2.083A2.083 2.083 0 0 1 0 15V4.167c0-.326.129-.639.357-.871v-.01a.408.408 0 0 1 .181-.121c.204-.156.452-.243.709-.25h17.5c.256.007.504.094.708.25.07.023.133.065.18.12v.01c.231.232.362.545.365.872V15a2.084 2.084 0 0 1-2.083 2.083ZM1.583 3.75l7.095 5.807a2.203 2.203 0 0 0 2.639 0l7.1-5.807H1.583Zm17.584.46-6.755 5.53 3.299 3.298a.416.416 0 1 1-.59.59l-3.333-3.334a.336.336 0 0 1-.017-.042 3.014 3.014 0 0 1-3.542 0 .325.325 0 0 1-.018.042l-3.333 3.333a.416.416 0 1 1-.59-.589l3.3-3.299L.833 4.211V15a1.25 1.25 0 0 0 1.25 1.25h15.834a1.25 1.25 0 0 0 1.25-1.25V4.21Z" fill="#F47E44"/></g><defs><clipPath id="a"><path fill="#fff" d="M0 0h20v20H0z"/></clipPath></defs></svg>
